texture_06.svg

<?xml version="1.0" encoding="UTF-8"?>
<svg width="1024" height="1024" version="1.1" xmlns="http://www.w3.org/2000/svg">
 <g fill="#fff">
  <path d="m257 1024h-1v-127h-127v127h-1v-127h-128v-1h128v-127h-128v-1h128v-127h-128v-1h128v-127h-128v-1h128v-127h-128v-1h128v-127h-128v-1h128v-127h-128v-1h128v-128h1v128h127v-128h1v128h127v-128h1v128h127v-128h1v128h127v-128h1v128h127v-128h1v128h127v-128h1v128h127v1h-127v127h127v1h-127v127h127v1h-127v127h127v1h-127v127h127v1h-127v127h127v1h-127v127h127v1h-127v127h-1v-127h-127v127h-1v-127h-127v127h-1v-127h-127v127h-1v-127h-127v127h-1v-127h-127v127m511-767h-127v127h127v-127m1 0v127h127v-127h-127m-1-1v-127h-127v127h127m1 0h127v-127h-127v127m0 256h127v-127h-127v127m-1 256v-127h-127v127h127m1 0h127v-127h-127v127m127-255h-127v127h127v-127m-255 0v127h127v-127h-127m128 256v127h127v-127h-127m-128-257h127v-127h-127v127m-128-256h127v-127h-127v127m-1 1h-127v127h127v-127m-128 127v-127h-127v127h127m129-127v127h127v-127h-127m0 255h127v-127h-127v127m-1-256v-127h-127v127h127m0 256v-127h-127v127h127m-128-383h-127v127h127v-127m-128 128h-127v127h127v-127m0 255v-127h-127v127h127m-127-383v127h127v-127h-127m127 639v-127h-127v127h127m1 0h127v-127h-127v127m-128-255v127h127v-127h-127m255 0h-127v127h127v-127m-128 256h-127v127h127v-127m384-256h-127v127h127v-127m-128 255v-127h-127v127h127m1 0h127v-127h-127v127m0 1v127h127v-127h-127m-128-256v127h127v-127h-127m127 256h-127v127h127v-127m-255-257h127v-127h-127v127m0 257v127h127v-127h-127m511 0h-127v127h127v-127" fill-opacity=".10196"/>
  <path d="M 1023,1 H 1 V 1023 H 1023 V 1 M 0,0 H 1024 V 1024 H 0 V 0"/>
  <path d="m768 158h1q0.4 0 0.7 0.3l0.3 0.7v96h96q0.4 0 0.7 0.3l0.3 0.7v1l-0.3 0.7-0.7 0.3h-96v96l-0.3 0.7q-0.3 0.3-0.7 0.3h-1l-0.7-0.3q-0.3-0.3-0.3-0.7v-96h-96l-0.7-0.3q-0.3-0.3-0.3-0.7v-1q0-0.4 0.3-0.7t0.7-0.3h96v-96q0-0.4 0.3-0.7t0.7-0.3m0 512h1q0.4 0 0.7 0.3l0.3 0.7v96h96q0.4 0 0.7 0.3l0.3 0.7v1l-0.3 0.7-0.7 0.3h-96v96l-0.3 0.7q-0.3 0.3-0.7 0.3h-1l-0.7-0.3q-0.3-0.3-0.3-0.7v-96h-96l-0.7-0.3q-0.3-0.3-0.3-0.7v-1q0-0.4 0.3-0.7t0.7-0.3h96v-96q0-0.4 0.3-0.7t0.7-0.3m-413-414v1l-0.3 0.7q-0.3 0.3-0.7 0.3h-96v96l-0.3 0.7-0.7 0.3h-1l-0.7-0.3q-0.3-0.3-0.3-0.7v-96h-96l-0.7-0.3q-0.3-0.3-0.3-0.7v-1q0-0.4 0.3-0.7t0.7-0.3h96v-96q0-0.4 0.3-0.7t0.7-0.3h1q0.4 0 0.7 0.3l0.3 0.7v96h96q0.4 0 0.7 0.3l0.3 0.7m-197 513v-1q0-0.4 0.3-0.7t0.7-0.3h96v-96q0-0.4 0.3-0.7t0.7-0.3h1q0.4 0 0.7 0.3l0.3 0.7v96h96q0.4 0 0.7 0.3l0.3 0.7v1l-0.3 0.7q-0.3 0.3-0.7 0.3h-96v96l-0.3 0.7-0.7 0.3h-1l-0.7-0.3q-0.3-0.3-0.3-0.7v-96h-96l-0.7-0.3q-0.3-0.3-0.3-0.7" fill-opacity=".4"/>
 </g>
</svg>

<?xml version="1.0" encoding="UTF-8" standalone="no"?>
<svg
   version="1.1"
   id="svg14"
   sodipodi:docname="texture_06.svg"
   width="1024"
   height="1024"
   inkscape:version="1.1.2 (0a00cf5339, 2022-02-04)"
   xmlns:inkscape="http://www.inkscape.org/namespaces/inkscape"
   xmlns:sodipodi="http://sodipodi.sourceforge.net/DTD/sodipodi-0.dtd"
   xmlns="http://www.w3.org/2000/svg"
   xmlns:svg="http://www.w3.org/2000/svg">
  <sodipodi:namedview
     id="namedview16"
     pagecolor="#505050"
     bordercolor="#eeeeee"
     borderopacity="1"
     inkscape:pageshadow="0"
     inkscape:pageopacity="0"
     inkscape:pagecheckerboard="0"
     showgrid="false"
     inkscape:zoom="0.35591041"
     inkscape:cx="314.68593"
     inkscape:cy="942.65295"
     inkscape:window-width="1440"
     inkscape:window-height="831"
     inkscape:window-x="1280"
     inkscape:window-y="32"
     inkscape:window-maximized="1"
     inkscape:current-layer="g12" />
  <defs
     id="defs2" />
  <g
     id="g12">
    <path
       stroke="none"
       fill="#ffffff"
       fill-opacity="0.101961"
       d="m 257,1024 h -1 V 897 H 129 v 127 h -1 V 897 H 0 v -1 H 128 V 769 H 0 v -1 H 128 V 641 H 0 v -1 H 128 V 513 H 0 v -1 H 128 V 385 H 0 v -1 H 128 V 257 H 0 v -1 H 128 V 129 H 0 v -1 H 128 V 0 h 1 V 128 H 256 V 0 h 1 V 128 H 384 V 0 h 1 V 128 H 512 V 0 h 1 V 128 H 640 V 0 h 1 V 128 H 768 V 0 h 1 V 128 H 896 V 0 h 1 v 128 h 127 v 1 H 897 v 127 h 127 v 1 H 897 v 127 h 127 v 1 H 897 v 127 h 127 v 1 H 897 v 127 h 127 v 1 H 897 v 127 h 127 v 1 H 897 v 127 h 127 v 1 H 897 v 127 h -1 V 897 H 769 v 127 h -1 V 897 H 641 v 127 h -1 V 897 H 513 v 127 h -1 V 897 H 385 v 127 h -1 V 897 H 257 v 127 M 768,257 H 641 V 384 H 768 V 257 m 1,0 V 384 H 896 V 257 H 769 m -1,-1 V 129 H 641 v 127 h 127 m 1,0 H 896 V 129 H 769 v 127 m 0,256 H 896 V 385 H 769 v 127 m -1,256 V 641 H 641 v 127 h 127 m 1,0 H 896 V 641 H 769 V 768 M 896,513 H 769 V 640 H 896 V 513 m -255,0 V 640 H 768 V 513 H 641 M 769,769 V 896 H 896 V 769 H 769 M 641,512 H 768 V 385 H 641 V 512 M 513,256 H 640 V 129 H 513 v 127 m -1,1 H 385 V 384 H 512 V 257 M 384,384 V 257 H 257 V 384 H 384 M 513,257 V 384 H 640 V 257 H 513 m 0,255 H 640 V 385 H 513 V 512 M 512,256 V 129 H 385 v 127 h 127 m 0,256 V 385 H 385 V 512 H 512 M 384,129 H 257 V 256 H 384 V 129 M 256,257 H 129 V 384 H 256 V 257 m 0,255 V 385 H 129 V 512 H 256 M 129,129 V 256 H 256 V 129 H 129 M 256,768 V 641 H 129 v 127 h 127 m 1,0 H 384 V 641 H 257 V 768 M 129,513 V 640 H 256 V 513 H 129 m 255,0 H 257 V 640 H 384 V 513 M 256,769 H 129 V 896 H 256 V 769 M 640,513 H 513 V 640 H 640 V 513 M 512,768 V 641 H 385 v 127 h 127 m 1,0 H 640 V 641 H 513 v 127 m 0,1 V 896 H 640 V 769 H 513 M 385,513 V 640 H 512 V 513 H 385 M 512,769 H 385 V 896 H 512 V 769 M 257,512 H 384 V 385 H 257 v 127 m 0,257 V 896 H 384 V 769 H 257 m 511,0 H 641 V 896 H 768 V 769"
       id="path6" />
    <path
       stroke="none"
       fill="#ffffff"
       d="M 1023,1 H 1 V 1023 H 1023 V 1 M 0,0 H 1024 V 1024 H 0 V 0"
       id="path8" />
    <path
       stroke="none"
       fill="#ffffff"
       fill-opacity="0.4"
       d="m 768,158 h 1 q 0.4,0 0.7,0.3 l 0.3,0.7 v 96 h 96 q 0.4,0 0.7,0.3 l 0.3,0.7 v 1 l -0.3,0.7 -0.7,0.3 h -96 v 96 l -0.3,0.7 q -0.3,0.3 -0.7,0.3 h -1 l -0.7,-0.3 Q 767,354.4 767,354 v -96 h -96 l -0.7,-0.3 Q 670,257.4 670,257 v -1 q 0,-0.4 0.3,-0.7 0.3,-0.3 0.7,-0.3 h 96 v -96 q 0,-0.4 0.3,-0.7 0.3,-0.3 0.7,-0.3 m 0,512 h 1 q 0.4,0 0.7,0.3 l 0.3,0.7 v 96 h 96 q 0.4,0 0.7,0.3 l 0.3,0.7 v 1 l -0.3,0.7 -0.7,0.3 h -96 v 96 l -0.3,0.7 q -0.3,0.3 -0.7,0.3 h -1 l -0.7,-0.3 Q 767,866.4 767,866 v -96 h -96 l -0.7,-0.3 Q 670,769.4 670,769 v -1 q 0,-0.4 0.3,-0.7 0.3,-0.3 0.7,-0.3 h 96 v -96 q 0,-0.4 0.3,-0.7 0.3,-0.3 0.7,-0.3 M 355,256 v 1 l -0.3,0.7 q -0.3,0.3 -0.7,0.3 h -96 v 96 l -0.3,0.7 -0.7,0.3 h -1 l -0.7,-0.3 Q 255,354.4 255,354 v -96 h -96 l -0.7,-0.3 Q 158,257.4 158,257 v -1 q 0,-0.4 0.3,-0.7 0.3,-0.3 0.7,-0.3 h 96 v -96 q 0,-0.4 0.3,-0.7 0.3,-0.3 0.7,-0.3 h 1 q 0.4,0 0.7,0.3 l 0.3,0.7 v 96 h 96 q 0.4,0 0.7,0.3 L 355,256 M 158,769 v -1 q 0,-0.4 0.3,-0.7 0.3,-0.3 0.7,-0.3 h 96 v -96 q 0,-0.4 0.3,-0.7 0.3,-0.3 0.7,-0.3 h 1 q 0.4,0 0.7,0.3 l 0.3,0.7 v 96 h 96 q 0.4,0 0.7,0.3 l 0.3,0.7 v 1 l -0.3,0.7 q -0.3,0.3 -0.7,0.3 h -96 v 96 l -0.3,0.7 -0.7,0.3 h -1 l -0.7,-0.3 Q 255,866.4 255,866 v -96 h -96 l -0.7,-0.3 Q 158,769.4 158,769"
       id="path10" />
  </g>
</svg>
